X:1
T:Raad for Uraad
T:Plant tre!
T:Per Winge
C:L. M. Lindeman
%%score [ 1 2 3 4 ]
L:1/8
Q:1/4=62
M:4/4
K:F
V:1 treble-8 nm="Tenor"
V:2 treble-8 nm="Tenor"
V:3 bass nm="Baryton"
V:4 bass nm="Bass"
V:1
"^Moderato"!f! A2 | c6!pp! A2 | !fermata!c4!mf! z c (3c f e | e2 d3/2 B/ d2 e3/2 d/ | %4
w: Plant|tre! plant|tre! Paa kvar slik ein|stad, som 'kje plo- gen kann|
 d2 c2 z c (3c d A | c2 B3/2 c/"^cresc." d2 g3/2 f/ | f2 e2!f! (3z e e (3e d e | %7
w: gan- ga paa plas- sar, som|ljaa'n in- kje gra- set kann|fan- ga, paa kvar le- di- ge|
 (f2 e3/2) d/ B2 d3/2 B/ |!>(! d2 c!>)! z/!p! A/ A2!<(! d3/2 c/!<)! | %9
w: flekk _ fraa heid ned til|stren- der byr tre ver- ta|
"^cresc." c2 B3/2 c/ d2 g3/2 f/ | f2 e2!f! (3z e e (3e d e | (f2 e3/2) d/ B2 d3/2 B/ | %12
w: set- te av vyrk- sa- me|hen- der, paa kvar le- di- ge|flekk _ fraa heid ned til|
 d2 c2!p! z A (3A G A |!<(! c2 B3/2 c/!<)!!f! d2 g3/2 f/ | e2 f2 !fermata!z2 |] %15
w: stren- der byr tre ver- ta|set- te av vyrk- sa- me|hen- der.|
V:2
!f! A2 | G6!pp! F2 | !fermata!G4!mf! z F (3F F F | F2 F3/2 F/ B2 =B3/2 B/ | =B2 c2 z A (3A A ^F | %5
w: Plant|tre! plant|tre! Paa kvar slik ein|stad, som 'kje plo- gen kann|gan- ga paa plas- sar som|
 G2 G3/2 G/"^cresc." G2 G3/2 d/ | d2 c2!f! (3z c c (3c c c | (c2 B3/2) A/ G2 B3/2 G/ | %8
w: ljaa'n in- kje gra- set kann|fan- ga, paa kvar le- di- ge|flekk _ fraa heid ned til|
!>(! A2 A!>)! z/!p! A/ A2!<(! A3/2 A/!<)! |"^cresc." A2 G3/2 G/ B2 G3/2 G/ | %10
w: stren- der byr tre ver- ta|set- te av vyrk- sa- me|
 G2 G2!f! (3z c c (3c c c | (c2 B3/2) A/ G2 B3/2 B/ | A2 A2!p! z F (3^F E F | %13
w: hen- der, paa kvar le- di- ge|flekk _ fraa heid ned til|stren- der byr tre ver- ta|
!<(! G2 G3/2 G/!<)!!f! G2 G3/2 G/ | (cB) A2 !fermata!z2 |] %15
w: set- te av vyrk- sa- me|hen- * der.|
V:3
!f! F,2 | E,6!pp! D,2 | !fermata!E,4!mf! z C, (3C, C, C, | C,2 D,3/2 D,/ D,2 F,3/2 F,/ | %4
w: Plant|tre! plant|tre! Paa kvar slik ein|stad, som 'kje plo- gen kan|
 F,2 F,2 z F, (3F, ^F, F, | D,2 D,3/2 D,/"^cresc." D,2 D,3/2 G,/ | %6
w: gan- ga paa plas- sar som|ljaa'n in- kje gra- set kann|
 G,2 G,2!f! (3z G, G, (3B, B, B, | (A,2 G,3/2) F,/ F,2 G,3/2 G,/ | %8
w: fan- ga paa kvar le- di- ge|flekk _ fraa heid ned til|
!>(! F,2 F,!>)! z/!p! F,/ ^F,2!<(! F,3/2 F,/!<)! |"^cresc." ^F,2 G,3/2 G,/ G,2 D,3/2 D,/ | %10
w: stren- der byr tre ver- ta|set- te av vyrk- sa- me|
 D,2 C,2!f! (3z G, G, (3B, B, B, | (A,2 G,3/2) F,/ F,2 G,3/2 G,/ | F,2 F,2!p! z F, (3D, D, D, | %13
w: hen- der, paa kvar le- di- ge|flekk _ fraa heid ned til|stren- der byr tre ver- ta|
!<(! D,2 D,3/2 D,/!<)!!f! D,2 D,3/2 D,/ | C,2 C,2 !fermata!z2 |] %15
w: set- te av vyrk- sa- me|hen- der.|
V:4
!f! F,2 | C,6!pp! D,2 | !fermata!C,4!mf! z A,, (3A,, A,, A,, | B,,2 B,,3/2 B,,/ G,,2 ^G,,3/2 G,,/ | %4
w: Plant|tre! plant|tre! Paa kvar slik ein|stad, som 'kje plo- gen kan|
 ^G,,2 A,,2 z A,, (3D, D, D, | G,,2 G,,3/2 A,,/"^cresc." B,,2 =B,,3/2 B,,/ | %6
w: gan- ga paa plas- sar som|ljaa'n in- kje gra- set kann|
 =B,,2 C,2!f! (3z C, C, (3_B, B, B, | (A,2 G,3/2) F,/ F,2 E,3/2 E,/ | %8
w: fan- ga paa kvar le- di- ge|flekk _ fraa heid ned til|
!>(! F,2 F,!>)! z/!p! F,/ D,2!<(! D,3/2 D,/!<)! |"^cresc." G,,2 G,,3/2 G,,/ G,,2 B,,3/2 =B,,/ | %10
w: stren- der byr tre ver- ta|set- te av vyrk- sa- me|
 =B,,2 C,2!f! (3z C, C, (3_B, B, B, | (A,2 G,3/2) F,/ F,2 E,3/2 E,/ | F,2 F,2!p! z F, (3D, D, D, | %13
w: hen- der paa kvar le- di- ge|flekk _ fraa heid ned til|stren- der byr tre ver- ta|
"_\n\n2.\nPlant tre, mine godtfolk, til hugnad og nytta\ntil pryd for heim og for hus og for hytta,\nder me kann 'kje rydja for horv og for plogar,\nder byggjer me landet med hagar og skogar."!<(! G,,2 G,,3/2 G,,/!<)!!f! B,,2 =B,,3/2 B,,/ | %14
w: set- te av vyrk- sa- me|
 C,2 F,,2 !fermata!z2 |] %15
w: hen- der.|

